images/icon/group5.svg

<svg width="63" height="46" viewBox="0 0 63 46" fill="none" xmlns="http://www.w3.org/2000/svg">
<path d="M4.7569 38.17C5.00058 38.4462 5.13038 38.792 5.12358 39.147C5.13601 39.3786 5.0914 39.6097 4.99304 39.8233C4.89469 40.0369 4.74511 40.2276 4.55539 40.3811C4.08201 40.7084 3.49555 40.8684 2.90369 40.8317H0V34.6403H2.84423C3.40566 34.6061 3.96263 34.7515 4.41995 35.0516C4.60363 35.1924 4.74908 35.3703 4.84482 35.5714C4.94055 35.7724 4.98396 35.991 4.97162 36.2101C4.98831 36.5516 4.87115 36.8874 4.64128 37.1568C4.42059 37.4028 4.1156 37.5733 3.77579 37.6407C4.16101 37.7051 4.50873 37.8927 4.7569 38.17ZM1.35109 37.2354H2.56674C2.84303 37.2541 3.11743 37.1811 3.33974 37.0298C3.43101 36.954 3.50203 36.8601 3.54728 36.7552C3.59254 36.6503 3.61082 36.5372 3.60071 36.4248C3.60929 36.3128 3.59063 36.2005 3.54607 36.0959C3.50151 35.9913 3.43217 35.897 3.34304 35.8199C3.11408 35.6643 2.83115 35.5901 2.54692 35.6112H1.35109V37.2354ZM3.45866 39.6098C3.55623 39.5322 3.63292 39.4351 3.68277 39.326C3.73262 39.2169 3.75428 39.0987 3.74606 38.9807C3.7535 38.8612 3.73085 38.7418 3.67988 38.6317C3.6289 38.5216 3.55095 38.4236 3.45205 38.3455C3.21421 38.184 2.9217 38.1048 2.6262 38.1217H1.35109V39.8245H2.64272C2.93345 39.8399 3.22122 39.7642 3.45866 39.6098Z" fill="#AFB1B8"/>
<path d="M10.5709 40.8318L8.98857 38.412H8.39396V40.8318H7.03296V34.6403H9.60961C10.2591 34.5988 10.9012 34.7872 11.4034 35.1666C11.7635 35.5026 11.9808 35.9454 12.0159 36.4151C12.051 36.8849 11.9018 37.3506 11.595 37.7285C11.2771 38.0619 10.8428 38.2843 10.3661 38.3576L12.0508 40.8318H10.5709ZM8.39396 37.5682H9.50721C10.2802 37.5682 10.6667 37.2556 10.6667 36.6305C10.6746 36.5029 10.6534 36.3751 10.6045 36.2553C10.5556 36.1356 10.48 36.0264 10.3826 35.9348C10.1383 35.7488 9.82374 35.6586 9.50721 35.6838H8.38075L8.39396 37.5682Z" fill="#AFB1B8"/>
<path d="M18.0102 39.5855H15.2981L14.8191 40.8316H13.392L15.8828 34.7097H17.4255L19.9063 40.8316H18.4793L18.0102 39.5855ZM17.6468 38.6478L16.6558 36.0345L15.6648 38.6478H17.6468Z" fill="#AFB1B8"/>
<path d="M27.3224 40.8317H25.9713L22.9421 36.6214V40.8317H21.5943V34.6403H22.9421L25.9713 38.8748V34.6403H27.3224V40.8317Z" fill="#AFB1B8"/>
<path d="M35.0326 39.3497C34.7532 39.8171 34.3276 40.1974 33.8103 40.4416C33.2222 40.7136 32.5695 40.8477 31.9109 40.8318H29.506V34.6403H31.9109C32.5684 34.6246 33.2202 34.7554 33.8103 35.0214C34.3275 35.2601 34.7536 35.6365 35.0326 36.1012C35.3107 36.6048 35.4556 37.1612 35.4556 37.7255C35.4556 38.2897 35.3107 38.8461 35.0326 39.3497ZM33.4866 39.2015C33.8722 38.7902 34.0842 38.266 34.0842 37.7239C34.0842 37.1819 33.8722 36.6577 33.4866 36.2464C33.0205 35.8738 32.4127 35.6847 31.7952 35.7201H30.8571V39.7278H31.7952C32.4127 39.7632 33.0205 39.574 33.4866 39.2015Z" fill="#AFB1B8"/>
<path d="M18.8558 0.201538C18.8558 0.201538 36.2945 6.22967 35.9245 14.9528V29.707C35.9245 29.707 18.4991 23.6759 18.8624 14.9528L18.8558 0.201538Z" fill="#AFB1B8"/>
<path d="M51.4603 26.2529C54.7538 24.1776 58.5633 22.8922 62.5399 22.5144V17.8958C57.9579 19.5127 54.0709 22.4446 51.4603 26.2529Z" fill="#AFB1B8"/>
<path d="M49.4816 27.6443C52.1773 22.6745 56.8505 18.8394 62.54 16.928V3.61951C62.54 3.61951 37.705 12.2065 38.2303 24.6287V45.635C38.2303 45.635 39.3369 45.2508 41.0778 44.531C41.0778 43.8595 41.0778 43.182 41.1571 42.5014C41.6711 36.7344 44.6654 31.3904 49.4816 27.6443Z" fill="#AFB1B8"/>
<path d="M47.1197 35.4479C47.2502 33.9911 47.5413 32.55 47.9885 31.1469C44.9896 34.3819 43.1734 38.3963 42.7956 42.6254C42.7592 43.0247 42.7394 43.4239 42.7295 43.8353C44.14 43.2152 45.7818 42.4409 47.5062 41.5305C47.0662 39.5296 46.936 37.482 47.1197 35.4479Z" fill="#AFB1B8"/>
<path d="M48.1075 35.5235C47.9421 37.3638 48.0454 39.2161 48.4147 41.0314C55.1999 37.3141 62.8241 31.5703 62.5301 24.6287V24.0238C57.6824 24.5205 53.1468 26.4608 49.6204 29.5468C48.7948 31.4592 48.2849 33.4736 48.1075 35.5235Z" fill="#AFB1B8"/>
</svg>

<svg width="63" height="46" fill="none" xmlns="http://www.w3.org/2000/svg"><path d="M4.757 38.17c.244.276.373.622.367.977a1.43 1.43 0 01-.131.676 1.558 1.558 0 01-.438.558 2.627 2.627 0 01-1.651.45H0v-6.19h2.844a2.593 2.593 0 011.576.41c.184.141.33.32.425.52.096.201.139.42.127.64.016.34-.1.676-.33.946-.221.246-.526.416-.866.484.385.064.733.252.98.529zm-3.406-.935h1.216c.276.02.55-.054.773-.205a.738.738 0 00.207-.275.679.679 0 00.054-.33.7.7 0 00-.055-.33.76.76 0 00-.203-.275 1.255 1.255 0 00-.796-.209H1.35v1.624zM3.46 39.61a.776.776 0 00.224-.284.71.71 0 00.063-.345.722.722 0 00-.066-.35.788.788 0 00-.228-.285 1.338 1.338 0 00-.826-.224H1.351v1.703h1.292c.29.015.578-.06.816-.215zM10.57 40.832l-1.581-2.42h-.595v2.42H7.033V34.64H9.61a2.699 2.699 0 011.793.527c.36.336.578.778.613 1.248a1.86 1.86 0 01-.421 1.313 2.147 2.147 0 01-1.229.63l1.685 2.474h-1.48zm-2.176-3.264h1.113c.773 0 1.16-.312 1.16-.938a.852.852 0 00-.063-.375.917.917 0 00-.221-.32 1.282 1.282 0 00-.876-.251H8.381l.013 1.884zM18.01 39.586h-2.712l-.479 1.246h-1.427l2.49-6.122h1.543l2.481 6.122H18.48l-.469-1.246zm-.363-.938l-.991-2.614-.991 2.614h1.982zM27.322 40.832h-1.35l-3.03-4.21v4.21h-1.348V34.64h1.348l3.03 4.235V34.64h1.35v6.192zM35.033 39.35c-.28.467-.705.847-1.223 1.092a4.287 4.287 0 01-1.9.39h-2.404V34.64h2.405a4.376 4.376 0 011.9.381c.517.24.943.615 1.222 1.08.278.504.423 1.06.423 1.624 0 .565-.145 1.121-.423 1.625zm-1.546-.148a2.16 2.16 0 00.597-1.478c0-.542-.212-1.066-.597-1.478a2.488 2.488 0 00-1.692-.526h-.938v4.008h.938a2.489 2.489 0 001.692-.526zM18.856.202s17.438 6.028 17.069 14.75v14.755s-17.426-6.031-17.063-14.754L18.856.202zM51.46 26.253c3.294-2.075 7.103-3.36 11.08-3.739v-4.618c-4.582 1.617-8.47 4.549-11.08 8.357z" fill="#AFB1B8"/><path d="M49.482 27.644c2.695-4.97 7.368-8.805 13.058-10.716V3.62s-24.835 8.587-24.31 21.009v21.006s1.107-.384 2.848-1.104c0-.672 0-1.349.08-2.03.513-5.767 3.507-11.11 8.324-14.857z" fill="#AFB1B8"/><path d="M47.12 35.448a20.05 20.05 0 01.869-4.301c-3 3.235-4.816 7.25-5.193 11.478-.037.4-.057.799-.066 1.21a74.756 74.756 0 004.776-2.304c-.44-2.001-.57-4.049-.386-6.083zM48.108 35.523a19.051 19.051 0 00.307 5.508c6.785-3.717 14.41-9.46 14.115-16.402v-.605c-4.848.496-9.383 2.437-12.91 5.523a19.26 19.26 0 00-1.512 5.976z" fill="#AFB1B8"/></svg>
